X: 1
T: the Munster Jig
M: 6/8
L: 1/8
R: jig
S: Paddy Cronin's playing
F: http://www.thesession.org/tunes/display/372
N: Also known as Jackson's Mistake, Jim O'Connor's, John Blessing's Delight, Miss Monroe's.
K: G
D \
| ~G3 AGA | ~B3 gdB | GAB cBA    | BGE EDE \
| ~G3 AGA | ~B3 gdB | cBA B{c}dB | AGG G2 :|
|: f \
| gfg efg | eag edB | gfg efg    | afd d2f \
| gfe agf | gfe fdB | cBA B{c}dB | AGG G2 :|
